static/icons/prisma.svg

<svg width="24" height="28" viewBox="0 0 24 28" fill="none" xmlns="http://www.w3.org/2000/svg">
<path fill-rule="evenodd" clip-rule="evenodd" d="M1.20964 19.0073C0.934043 18.5726 0.929879 18.0189 1.1989 17.58L11.3282 1.05707C11.8916 0.13807 13.252 0.218425 13.7033 1.19735L22.9569 21.2706C23.3002 22.0154 22.905 22.8917 22.1194 23.1274L7.72474 27.4458C7.14558 27.6195 6.52155 27.3867 6.19781 26.876L1.20964 19.0073ZM12.4969 5.88824C12.5945 5.40217 13.2605 5.33208 13.4572 5.78717L19.8402 20.5571C19.9603 20.8352 19.8108 21.1559 19.5205 21.2425L9.57492 24.2114C9.20935 24.3205 8.85916 24.0011 8.93428 23.627L12.4969 5.88824ZM49.4948 21.1371H52.3226V10.772H49.4948V21.1371ZM49.3744 8.09277C49.3744 7.17221 49.8878 6.7116 50.9137 6.7116C51.9394 6.7116 52.4527 7.17221 52.4527 8.09277C52.4527 8.53176 52.3244 8.87321 52.068 9.11743C51.8114 9.36165 51.4267 9.48343 50.9137 9.48343C49.8878 9.48343 49.3744 9.01987 49.3744 8.09277ZM88.1709 16.335L87.0768 16.372C86.2548 16.3969 85.6429 16.5455 85.2412 16.8172C84.8392 17.0893 84.6386 17.5031 84.6386 18.0596C84.6386 18.8567 85.0959 19.2555 86.0106 19.2555C86.6656 19.2555 87.1897 19.0672 87.5819 18.6898C87.9744 18.313 88.1709 17.8124 88.1709 17.1878V16.335ZM89.0053 21.1375L88.4583 19.7282H88.384C87.908 20.3279 87.4182 20.7437 86.9144 20.9755C86.4109 21.2072 85.7542 21.3228 84.9446 21.3228C83.9491 21.3228 83.1661 21.0386 82.5941 20.47C82.0226 19.9017 81.7368 19.0918 81.7368 18.0409C81.7368 16.941 82.1214 16.1298 82.8907 15.6073C83.6607 15.0851 84.8209 14.7961 86.3723 14.7404L88.1709 14.6848V14.2304C88.1709 13.1799 87.633 12.6544 86.5576 12.6544C85.7293 12.6544 84.7558 12.9045 83.6371 13.4054L82.7009 11.4955C83.8938 10.8716 85.2167 10.559 86.6689 10.559C88.0596 10.559 89.1258 10.8621 89.8676 11.4677C90.6091 12.0734 90.98 12.9946 90.98 14.2304V21.1375H89.0053ZM73.4802 21.1375H70.6524V15.0834C70.6524 14.3357 70.527 13.775 70.2772 13.4008C70.0265 13.0269 69.6326 12.8397 69.0948 12.8397C68.3719 12.8397 67.8465 13.1058 67.5188 13.6371C67.1911 14.1688 67.0275 15.0435 67.0275 16.261V21.1375H64.1996V10.7723H66.3599L66.74 12.0982H66.8978C67.1757 11.6225 67.5778 11.25 68.1029 10.9812C68.6283 10.7121 69.231 10.5776 69.9109 10.5776C71.4623 10.5776 72.5128 11.0846 73.0631 12.0982H73.3132C73.5915 11.616 74.001 11.2421 74.5419 10.9763C75.0827 10.7105 75.6929 10.5776 76.3728 10.5776C77.5471 10.5776 78.4359 10.8791 79.0382 11.4817C79.6409 12.0844 79.9421 13.0502 79.9421 14.3786V21.1375H77.1051V15.0834C77.1051 14.3357 76.9798 13.775 76.73 13.4008C76.4792 13.0269 76.0854 12.8397 75.5475 12.8397C74.8555 12.8397 74.3379 13.0872 73.9945 13.5815C73.6517 14.0761 73.4802 14.8608 73.4802 15.9362V21.1375ZM61.17 20.4885C61.9088 19.9323 62.2781 19.1227 62.2781 18.0594C62.2781 17.5468 62.1887 17.1045 62.0093 16.7336C61.8299 16.3627 61.5517 16.0353 61.1749 15.7508C60.7981 15.4667 60.2046 15.1609 59.3946 14.8332C58.4862 14.4685 57.8976 14.1932 57.6285 14.0079C57.3601 13.8226 57.2252 13.6033 57.2252 13.3496C57.2252 12.8985 57.6426 12.6729 58.477 12.6729C58.9465 12.6729 59.4071 12.7443 59.8582 12.886C60.3093 13.0284 60.7948 13.2104 61.314 13.4331L62.1668 11.3936C60.9863 10.8498 59.7718 10.5778 58.5232 10.5778C57.2127 10.5778 56.2009 10.8295 55.4872 11.3333C54.7729 11.8371 54.416 12.5495 54.416 13.4701C54.416 14.0079 54.5012 14.461 54.6714 14.8286C54.841 15.1963 55.113 15.5223 55.4872 15.8065C55.8607 16.091 56.4467 16.4 57.2438 16.7336C57.8 16.9686 58.2453 17.1742 58.5788 17.3503C58.9128 17.5265 59.1475 17.6843 59.2837 17.8231C59.4195 17.9622 59.4876 18.1429 59.4876 18.3655C59.4876 18.9587 58.9743 19.2553 57.9483 19.2553C57.4478 19.2553 56.8684 19.1718 56.2103 19.0052C55.5517 18.8382 54.9601 18.6313 54.4347 18.3838V20.7203C54.8983 20.918 55.3959 21.0679 55.9275 21.1701C56.4591 21.2719 57.1014 21.3229 57.8557 21.3229C59.3266 21.3229 60.4314 21.0447 61.17 20.4885ZM47.9948 10.661C47.7414 10.6054 47.4232 10.5776 47.0398 10.5776C46.3969 10.5776 45.8021 10.7553 45.2554 11.1108C44.708 11.4664 44.2739 11.9345 43.9524 12.5152H43.8136L43.3962 10.7723H41.2546V21.1375H44.0824V15.8622C44.0824 15.0278 44.3341 14.3786 44.8376 13.9151C45.3418 13.4515 46.0446 13.2197 46.9472 13.2197C47.2749 13.2197 47.5528 13.2508 47.7817 13.3124L47.9948 10.661ZM32.9317 13.9614H33.8774C34.7613 13.9614 35.4223 13.7869 35.8613 13.4376C36.3003 13.0886 36.5196 12.5799 36.5196 11.9124C36.5196 11.239 36.3356 10.7414 35.968 10.4199C35.6 10.0984 35.0239 9.93766 34.2388 9.93766H32.9317V13.9614ZM39.4214 11.8106C39.4214 13.2694 38.9657 14.385 38.0537 15.1573C37.1423 15.9302 35.8459 16.3162 34.1649 16.3162H32.9317V21.1373H30.0577V7.58296H34.3872C36.0315 7.58296 37.2814 7.93684 38.1375 8.64461C38.9936 9.35238 39.4214 10.4079 39.4214 11.8106Z" fill="white"/>
</svg>

<svg width="24" height="28" fill="none" xmlns="http://www.w3.org/2000/svg"><path fill-rule="evenodd" clip-rule="evenodd" d="M1.21 19.007a1.349 1.349 0 0 1-.011-1.427l10.13-16.523a1.349 1.349 0 0 1 2.374.14l9.254 20.074a1.349 1.349 0 0 1-.838 1.856L7.725 27.446a1.349 1.349 0 0 1-1.527-.57L1.21 19.007ZM12.497 5.888a.506.506 0 0 1 .96-.1l6.383 14.77a.506.506 0 0 1-.32.684l-9.945 2.97a.506.506 0 0 1-.64-.585l3.562-17.739Zm36.998 15.25h2.828V10.771h-2.828v10.365Zm-.12-13.045c0-.92.513-1.381 1.539-1.381 1.025 0 1.539.46 1.539 1.38 0 .44-.129.781-.385 1.025-.257.245-.641.366-1.154.366-1.026 0-1.54-.463-1.54-1.39Zm38.796 8.242-1.094.037c-.822.025-1.434.174-1.836.445-.402.272-.602.686-.602 1.243 0 .797.457 1.196 1.372 1.196.655 0 1.179-.189 1.57-.566.393-.377.59-.878.59-1.502v-.853Zm.834 4.802-.547-1.409h-.074c-.476.6-.966 1.016-1.47 1.247-.503.232-1.16.348-1.97.348-.995 0-1.778-.284-2.35-.853-.571-.568-.857-1.378-.857-2.43 0-1.099.384-1.91 1.154-2.433.77-.522 1.93-.81 3.481-.867l1.799-.055v-.455c0-1.05-.538-1.576-1.613-1.576-.829 0-1.802.25-2.92.751l-.937-1.91c1.193-.623 2.516-.936 3.968-.936 1.39 0 2.457.303 3.199.909.741.605 1.112 1.527 1.112 2.762v6.907h-1.975Zm-15.525 0h-2.828v-6.054c0-.747-.125-1.308-.375-1.682-.25-.374-.644-.561-1.182-.561-.723 0-1.248.266-1.576.797-.328.532-.492 1.406-.492 2.624v4.877H64.2V10.771h2.16l.38 1.326h.158c.278-.476.68-.848 1.205-1.117s1.128-.403 1.808-.403c1.551 0 2.602.507 3.152 1.52h.25c.278-.482.688-.856 1.229-1.122.54-.266 1.15-.398 1.83-.398 1.175 0 2.064.301 2.666.904.603.602.904 1.568.904 2.897v6.758h-2.837v-6.054c0-.747-.125-1.308-.375-1.682-.25-.374-.645-.561-1.183-.561-.691 0-1.21.247-1.552.742-.343.494-.515 1.279-.515 2.354v5.201Zm-12.31-.649c.739-.556 1.108-1.365 1.108-2.429 0-.512-.09-.954-.269-1.325a2.72 2.72 0 0 0-.834-.983c-.377-.284-.97-.59-1.78-.918-.909-.364-1.497-.64-1.767-.825-.268-.185-.403-.405-.403-.658 0-.451.418-.677 1.252-.677.47 0 .93.071 1.381.213.451.142.937.324 1.456.547l.853-2.04a8.62 8.62 0 0 0-3.644-.815c-1.31 0-2.322.252-3.036.755-.714.504-1.071 1.216-1.071 2.137 0 .538.085.991.255 1.359.17.367.442.693.816.977.374.285.96.594 1.757.928.556.235 1.001.44 1.335.616.334.176.569.334.705.473.136.14.204.32.204.543 0 .593-.514.89-1.54.89-.5 0-1.08-.084-1.738-.25a9.84 9.84 0 0 1-1.775-.622v2.336c.463.198.96.348 1.492.45.532.102 1.174.153 1.929.153 1.47 0 2.575-.278 3.314-.835Zm-13.175-9.827a4.562 4.562 0 0 0-.955-.083 3.21 3.21 0 0 0-1.785.533 3.898 3.898 0 0 0-1.303 1.404h-.138l-.418-1.743h-2.141v10.365h2.827v-5.275c0-.834.252-1.483.756-1.947.504-.463 1.207-.695 2.11-.695.327 0 .605.03.834.092l.213-2.651Zm-15.063 3.3h.945c.884 0 1.545-.174 1.984-.523.44-.35.659-.858.659-1.526 0-.673-.184-1.17-.552-1.492-.368-.322-.944-.482-1.73-.482h-1.306v4.023Zm6.49-2.15c0 1.458-.456 2.574-1.368 3.346-.912.773-2.208 1.16-3.89 1.16h-1.232v4.82h-2.874V7.583h4.33c1.644 0 2.893.354 3.75 1.062.856.707 1.283 1.763 1.283 3.166Z" fill="#fff"/></svg>
